svgs/duotone/shuttle-space.svg

<svg xmlns="http://www.w3.org/2000/svg" viewBox="0 0 640 512"><!--! Font Awesome Pro 6.4.0 by @fontawesome - https://fontawesome.com License - https://fontawesome.com/license (Commercial License) Copyright 2023 Fonticons, Inc. --><defs><style>.fa-secondary{opacity:.4}</style></defs><path class="fa-primary" d="M0 168c0-22.1 17.9-40 40-40h64c26.2 0 49.4 12.6 64 32H456c69.3 0 135 22.7 179.2 81.6c6.4 8.5 6.4 20.3 0 28.8C591 329.3 525.3 352 456 352H168c-14.6 19.4-37.8 32-64 32H40c-22.1 0-40-17.9-40-40V328 184 168zM512 268.4V243.6c0-19.6-15.9-35.6-35.6-35.6c-2.5 0-4.4 2-4.4 4.4v87.1c0 2.5 2 4.4 4.4 4.4c19.6 0 35.6-15.9 35.6-35.6z"/><path class="fa-secondary" d="M96 32v96H32V80c0-26.5 21.5-48 48-48H96zm0 352v96H80c-26.5 0-48-21.5-48-48V384H96zm32 96V380.3c16.1-5.1 30.1-15.1 40-28.3H405.3L245.2 448.1C210.4 469 170.6 480 130 480h-2zm0-348.3V32h2c40.6 0 80.4 11 115.2 31.9L405.3 160H168c-9.9-13.2-23.9-23.3-40-28.3z"/></svg>

<svg xmlns="http://www.w3.org/2000/svg" viewBox="0 0 640 512"><!--! Font Awesome Pro 6.3.0 by @fontawesome - https://fontawesome.com License - https://fontawesome.com/license (Commercial License) Copyright 2023 Fonticons, Inc. --><defs><style>.fa-secondary{opacity:.4}</style></defs><path class="fa-primary" d="M0 168C0 145.9 17.91 128 40 128H104C130.2 128 153.4 140.6 168 160H456C525.3 160 591 182.7 635.2 241.6C641.6 250.1 641.6 261.9 635.2 270.4C591 329.3 525.3 352 456 352H168C153.4 371.4 130.2 384 104 384H40C17.91 384 0 366.1 0 344L0 168zM512 268.4V243.6C512 223.9 496.1 208 476.4 208C473.1 208 472 209.1 472 212.4V299.6C472 302 473.1 304 476.4 304C496.1 304 512 288.1 512 268.4z"/><path class="fa-secondary" d="M96 128H32V80C32 53.49 53.49 32 80 32H96V128zM96 480H80C53.49 480 32 458.5 32 432V384H96V480zM128 480V380.3C144.1 375.3 158.1 365.2 168 352H405.3L245.2 448.1C210.4 468.1 170.6 480 129.1 480H128zM128 131.7V32H129.1C170.6 32 210.4 43.03 245.2 63.92L405.3 160H168C158.1 146.8 144.1 136.7 127.1 131.7H128z"/></svg>
